src/lib/packages/icons/src/assets/filled/home-dollar.svg

<svg width="24" height="24" viewBox="0 0 24 24" fill="none" xmlns="http://www.w3.org/2000/svg">
<path fill-rule="evenodd" clip-rule="evenodd" d="M19.5699 8.58608L13.606 3.58498C12.677 2.80598 11.3219 2.80598 10.3929 3.58498L4.42896 8.58608C3.52296 9.34608 2.99902 9.65302 2.99902 11.651V18C2.99902 20 3.99902 21 5.99902 21H17.999C19.999 21 20.999 20 20.999 18V11.651C21 9.65202 20.4769 9.34608 19.5699 8.58608ZM13.85 16.198C13.545 16.509 13.164 16.716 12.75 16.807V17C12.75 17.414 12.414 17.75 12 17.75C11.586 17.75 11.25 17.414 11.25 17V16.8051C10.335 16.6031 9.62204 15.837 9.51404 14.86C9.46804 14.448 9.765 14.077 10.177 14.032C10.578 13.986 10.958 14.283 11.004 14.695C11.046 15.075 11.356 15.361 11.725 15.361H12.276C12.465 15.361 12.645 15.284 12.782 15.145C12.924 15.001 13.001 14.8131 13.001 14.6131C13.001 14.2691 12.773 13.97 12.449 13.886L11.182 13.567C10.699 13.442 10.267 13.157 9.96497 12.762C9.66597 12.379 9.5 11.888 9.5 11.387C9.5 10.312 10.251 9.41401 11.25 9.19301V9.00002C11.25 8.58602 11.586 8.25002 12 8.25002C12.414 8.25002 12.75 8.58602 12.75 9.00002V9.19497C13.665 9.39697 14.378 10.163 14.486 11.14C14.532 11.552 14.235 11.923 13.823 11.968C13.423 12.008 13.042 11.7171 12.996 11.3051C12.954 10.9251 12.644 10.6391 12.275 10.6391H11.724C11.325 10.6391 10.999 10.974 10.999 11.387C10.999 11.557 11.053 11.72 11.151 11.846C11.255 11.982 11.392 12.073 11.55 12.114L12.817 12.433C13.808 12.688 14.499 13.5841 14.499 14.6131C14.5 15.2101 14.27 15.773 13.85 16.198Z" fill="currentColor"/>
</svg>

<svg xmlns="http://www.w3.org/2000/svg" width="24" height="24" fill="none"><path fill="currentColor" fill-rule="evenodd" d="m19.57 8.586-5.964-5.001a2.5 2.5 0 0 0-3.213 0L4.429 8.586c-.906.76-1.43 1.067-1.43 3.065V18c0 2 1 3 3 3h12c2 0 3-1 3-3v-6.349c.001-1.999-.522-2.305-1.43-3.065Zm-5.72 7.612a2.194 2.194 0 0 1-1.1.609V17a.75.75 0 0 1-1.5 0v-.195a2.236 2.236 0 0 1-1.736-1.945.749.749 0 1 1 1.49-.165c.042.38.352.666.721.666h.551a.708.708 0 0 0 .506-.216.751.751 0 0 0 .219-.532.747.747 0 0 0-.552-.727l-1.267-.319a2.245 2.245 0 0 1-1.682-2.18c0-1.075.751-1.973 1.75-2.194V9a.75.75 0 0 1 1.5 0v.195a2.236 2.236 0 0 1 1.736 1.945.75.75 0 0 1-.663.828.76.76 0 0 1-.827-.663.735.735 0 0 0-.721-.666h-.551a.738.738 0 0 0-.725.748.75.75 0 0 0 .551.727l1.267.319a2.246 2.246 0 0 1 1.682 2.18 2.235 2.235 0 0 1-.649 1.585Z" clip-rule="evenodd"/></svg>
